vendor/shopware/storefront/Resources/app/storefront/dist/assets/icon/default/cockpit.svg

<svg xmlns="http://www.w3.org/2000/svg" width="24" height="24" viewBox="0 0 24 24">
  <path fill="#758CA3" fill-rule="evenodd" d="M2.04937524,12 L3,12 C3.55228475,12 4,12.4477153 4,13 C4,13.5522847 3.55228475,14 3,14 L2.04958102,14 C2.32821459,16.7976521 3.76679224,19.3236262 5.9988548,21 L7.97216797,21 C8.52445272,21 8.97216797,21.4477153 8.97216797,22 C8.97216797,22.5522847 8.52445272,23 7.97216797,23 L5.67384173,23 C5.46770955,23 5.26661375,22.936299 5.09807692,22.8176154 C1.92670099,20.5843321 0,16.9532816 0,13 C0,6.372583 5.372583,1 12,1 C18.627417,1 24,6.372583 24,13 C24,16.9532816 22.073299,20.5843321 18.9019231,22.8176154 C18.7333862,22.936299 18.5322904,23 18.3261583,23 L15.8759766,23 C15.3236918,23 14.8759766,22.5522847 14.8759766,22 C14.8759766,21.4477153 15.3236918,21 15.8759766,21 L18.0011452,21 C20.2332078,19.3236262 21.6717854,16.7976521 21.950419,14 L21,14 C20.4477153,14 20,13.5522847 20,13 C20,12.4477153 20.4477153,12 21,12 L21.9506248,12 C21.4815561,7.27558355 17.7244165,3.51844387 13,3.04937524 L13,4 C13,4.55228475 12.5522847,5 12,5 C11.4477153,5 11,4.55228475 11,4 L11,3.04937524 C6.27558355,3.51844387 2.51844387,7.27558355 2.04937524,12 Z M12.7371541,13.6757246 C12.3639617,14.0828436 11.7313944,14.1103465 11.3242754,13.7371541 C10.9171564,13.3639617 10.8896535,12.7313944 11.2628459,12.3242754 L15.3534911,7.86175326 C15.7266835,7.45463427 16.3592509,7.42713134 16.7663699,7.80032375 C17.1734889,8.17351616 17.2009918,8.80608353 16.8277994,9.21320252 L12.7371541,13.6757246 Z"/>
</svg>

<svg xmlns="http://www.w3.org/2000/svg" width="24" height="24" viewBox="0 0 24 24"><path fill="#758CA3" fill-rule="evenodd" d="M2.0494 12H3c.5523 0 1 .4477 1 1s-.4477 1-1 1h-.9504c.2786 2.7977 1.7172 5.3236 3.9493 7h1.9733c.5523 0 1 .4477 1 1s-.4477 1-1 1H5.6738a1 1 0 0 1-.5757-.1824C1.9267 20.5843 0 16.9533 0 13 0 6.3726 5.3726 1 12 1s12 5.3726 12 12c0 3.9533-1.9267 7.5843-5.098 9.8176a1 1 0 0 1-.5758.1824H15.876c-.5523 0-1-.4477-1-1s.4477-1 1-1h2.1251c2.2321-1.6764 3.6707-4.2023 3.9493-7H21c-.5523 0-1-.4477-1-1s.4477-1 1-1h.9506C21.4816 7.2756 17.7244 3.5184 13 3.0494V4c0 .5523-.4477 1-1 1s-1-.4477-1-1v-.9506C6.2756 3.5184 2.5184 7.2756 2.0494 12zm10.6878 1.6757c-.3732.4071-1.0058.4346-1.413.0615-.407-.3732-.4345-1.0058-.0614-1.413l4.0907-4.4624c.3732-.4072 1.0058-.4347 1.4129-.0615.407.3732.4346 1.0058.0614 1.4129l-4.0906 4.4625z"/></svg>
